X:1
T:Living By Faith
T:Living By Faith
%%score 1 2 3 4
L:1/8
M:6/8
K:Eb
V:1 treble nm="Soprano" snm="S."
V:2 treble nm="Alto" snm="A."
V:3 bass nm="Tenor" snm="T."
V:4 bass nm="Bass" snm="B."
V:1
 E | GGG G^FG | BBB G2 E | GGG GFE | F3- F2 |] E | GGG G^FG | BBB G2 E | GGG FEF | E3- E2 |] %10
[M:12/8] BBB | B3- B3- B2 B BcB | G3- G3- G3 |] BBB | B3- B3- B2 G GFE | F3- F3- F3 |] Bcd | %17
 e3- e3- eee fec | B3- B3- B2 |] EGB c | B3- B3- B2 G GEF | E3- E3- E3 |] %22
V:2
 B, | EEE EEE | GGG E2 B, | EEE ECC | D3- D2 |] B, | EEE EEE | GGG E2 B, | EEE EB,B, | B,3- B,2 |] %10
[M:12/8] GGG | G2 G FFA G2 G GAG | E3- E3- E3 |] GGG | G3- G3- G2 E EB,C | D2 D CDE D3 |] z3 | %17
 z3 GGG GBB AAA | G2 G FFA G2 |] z z3 | z2 G GGG G2 E EB,B, | B,2 B, C2 _C B,3 |] %22
V:3
 G, | B,B,B, B,=A,B, | EEE B,2 G, | B,B,B, C=A,A, | B,3- B,2 |] G, | B,B,B, B,=A,B, | EEE B,2 G, | %8
 B,B,B, A,B,A, | G,3- G,2 |][M:12/8] z3 | z2 E DDD E2 z z3 | z2 B, CCC B,3 |] z3 | %14
 z3 EEE E2 E B,B,=A, | B,2 B, A,B,C B,3 |] z3 | z3 B,B,B, B,EE ECE | E2 E DDF E2 |] z z3 | %20
 z2 E EEE B,2 B, B,G,A, | G,2 G, A,2 ^F, G,3 |] %22
V:4
 E, | E,E,E, E,E,E, | E,E,E, E,2 E, | E,E,E, C,F,F, | B,,3- B,,2 |] E, | E,E,E, E,E,E, | %7
 E,E,E, E,2 E, | E,E,E, B,,B,,B,, | E,3- E,2 |][M:12/8] z3 | z2 E, B,,B,,B,, E,2 z z3 | %12
 z2 E, C,C,C, E,3 |] z3 | z3 E,E,E, E,2 E, E,D,C, | B,,2 B,, F,F,F, B,,3 |] z3 | %17
 z3 E,E,E, E,G,G, A,A,A, | E,2 E, B,,B,,B,, E,2 |] z z3 | z2 E, E,E,E, E,2 B,, B,,B,,B,, | %21
 E,3- E,3- E,3 |] %22

